X: 40322
T: Tom Billy's
R: jig
M: 6/8
K: Amixolydian
~a3 ece|edB BAA|eaa ece|edB Ace|
~a3 ece|edB BAA|GBd ged|1 edB Ace:|2 edB A2f||
|:~g3 ~a3|bag fed|faf g2d|edB def|
~g3 ~a3|bge gab|age dBe|1 ABA A2f:|2 A BA A2B||
|:~c3 edd|edB dBA|ABA cBA|~A3 ecA|
~c3 edd|ede gab|age dBe|1 ABA A2B:|2 A BA Ace||

